X:137
T: RAU RAU ROMMELSDOEPPEN
N: E1213
O: Europa, Mitteleuropa, Deutschland, Rheinland, Koeln
R: Ansinge -, Brauchtums - Lied, Kirchen - Fest, Fastnacht
M: 2/4
L: 1/8
K: C
 | CB,A,B, | CG,G,G, |
CB,CB, | CG,G,G, |
A,B,C2 | B,CD2 |
EDCA, | G,B,C2

@@@ Tune index: 4821
